src/svg/turnover.svg

<svg width="16" height="16" viewBox="0 0 16 16" fill="none" xmlns="http://www.w3.org/2000/svg">
    <mask id="turnover-mask0" mask-type="alpha" maskUnits="userSpaceOnUse" x="0" y="0" width="16" height="16">
        <path fill-rule="evenodd" clip-rule="evenodd" d="M0 8V0H16V16H8H0V8Z" fill="white"/>
    </mask>
    <g mask="url(#turnover-mask0)">
        <path fill-rule="evenodd" clip-rule="evenodd" d="M3 15H13C14.654 15 16 13.654 16 12V7.00001C16 5.34601 14.654 4.00001 13 4.00001C12.447 4.00001 12 4.44801 12 5.00001C12 5.55201 12.447 6.00001 13 6.00001C13.552 6.00001 14 6.44901 14 7.00001V12C14 12.551 13.552 13 13 13H3C2.448 13 2 12.551 2 12V7.00001C2 6.44901 2.448 6.00001 3 6.00001H7.586L6.293 7.29301C5.902 7.68401 5.902 8.31601 6.293 8.70701C6.684 9.09801 7.316 9.09801 7.707 8.70701L10.707 5.70701C11.098 5.31601 11.098 4.68401 10.707 4.29301L7.707 1.29301C7.316 0.902006 6.684 0.902006 6.293 1.29301C5.902 1.68401 5.902 2.31601 6.293 2.70701L7.586 4.00001H3C1.346 4.00001 0 5.34601 0 7.00001V12C0 13.654 1.346 15 3 15Z" fill="#434244"/>
    </g>
</svg>

<svg xmlns="http://www.w3.org/2000/svg" xmlns:xlink="http://www.w3.org/1999/xlink" width="16" height="16" viewBox="0 0 16 16">
    <defs>
        <path id="a" d="M0 8V0h16v16H0z"/>
    </defs>
    <g fill="none" fill-rule="evenodd">
        <mask id="b" fill="#fff">
            <use xlink:href="#a"/>
        </mask>
        <path fill="#212C42" d="M3 15h10c1.654 0 3-1.346 3-3V7c0-1.654-1.346-3-3-3a1 1 0 1 0 0 2c.552 0 1 .449 1 1v5c0 .551-.448 1-1 1H3c-.552 0-1-.449-1-1V7c0-.551.448-1 1-1h4.586L6.293 7.293a.999.999 0 1 0 1.414 1.414l3-3a.999.999 0 0 0 0-1.414l-3-3a.999.999 0 1 0-1.414 1.414L7.586 4H3C1.346 4 0 5.346 0 7v5c0 1.654 1.346 3 3 3" mask="url(#b)"/>
    </g>
</svg>
